png/audio.svg

<?xml version="1.0" encoding="utf-8"?><!-- Uploaded to: SVG Repo, www.svgrepo.com, Generator: SVG Repo Mixer Tools -->
<svg width="800px" height="800px" viewBox="0 0 24 24" fill="none" xmlns="http://www.w3.org/2000/svg">
<path d="M9.66984 13.9219C8.92984 13.9219 8.33984 14.5219 8.33984 15.2619C8.33984 16.0019 8.93984 16.5919 9.66984 16.5919C10.4098 16.5919 11.0098 15.9919 11.0098 15.2619C11.0098 14.5219 10.4098 13.9219 9.66984 13.9219Z" fill="#292D32"/>
<path d="M16.19 2H7.81C4.17 2 2 4.17 2 7.81V16.18C2 19.83 4.17 22 7.81 22H16.18C19.82 22 21.99 19.83 21.99 16.19V7.81C22 4.17 19.83 2 16.19 2ZM17.12 9.8C17.12 10.41 16.86 10.95 16.42 11.27C16.14 11.47 15.8 11.58 15.44 11.58C15.23 11.58 15.02 11.54 14.8 11.47L12.51 10.71C12.5 10.71 12.48 10.7 12.47 10.69V15.25C12.47 16.79 11.21 18.05 9.67 18.05C8.13 18.05 6.87 16.79 6.87 15.25C6.87 13.71 8.13 12.45 9.67 12.45C10.16 12.45 10.61 12.59 11.01 12.8V8.63V8.02C11.01 7.41 11.27 6.87 11.71 6.55C12.16 6.23 12.75 6.15 13.33 6.35L15.62 7.11C16.48 7.4 17.13 8.3 17.13 9.2V9.8H17.12Z" fill="#292D32"/>
</svg>

<svg xmlns="http://www.w3.org/2000/svg" width="800" height="800" fill="none" viewBox="0 0 24 24"><path fill="#292D32" d="M9.67 13.922c-.74 0-1.33.6-1.33 1.34s.6 1.33 1.33 1.33c.74 0 1.34-.6 1.34-1.33 0-.74-.6-1.34-1.34-1.34"/><path fill="#4ca5f2" d="M16.19 2H7.81C4.17 2 2 4.17 2 7.81v8.37C2 19.83 4.17 22 7.81 22h8.37c3.64 0 5.81-2.17 5.81-5.81V7.81C22 4.17 19.83 2 16.19 2m.93 7.8c0 .61-.26 1.15-.7 1.47-.28.2-.62.31-.98.31a2.1 2.1 0 0 1-.64-.11l-2.29-.76c-.01 0-.03-.01-.04-.02v4.56c0 1.54-1.26 2.8-2.8 2.8s-2.8-1.26-2.8-2.8 1.26-2.8 2.8-2.8c.49 0 .94.14 1.34.35V8.02c0-.61.26-1.15.7-1.47.45-.32 1.04-.4 1.62-.2l2.29.76c.86.29 1.51 1.19 1.51 2.09v.6z"/></svg>
